icons/stretch-32.svg

<svg xmlns="http://www.w3.org/2000/svg" viewBox="0 0 32 32"><path d="M26 10V6.713L15.714 17H19v1h-5v-5h1v3.3L25.3 6H22V5h5v5zM9 2H7v1h2zm12 0h-2v1h2zm4 0h-2v1h2zM11 3h2V2h-2zm6-1h-2v1h2zm12 19h1v-2h-1zm0 4h1v-2h-1zM27 2v1h2v2h1V2zm2 7h1V7h-1zm0 4h1v-2h-1zm0 4h1v-2h-1zM3 11H2v2h1zm0 4H2v2h1zm26 14h-2v1h3v-3h-1zM3 7H2v2h1zm20 23h2v-1h-2zm-4 0h2v-1h-2zm-4 0h2v-1h-2zM3 3h2V2H2v3h1zM2 19h11v11H2zm1 10h9v-9H3z"/><path fill="none" d="M0 0h32v32H0z"/></svg>

<svg id="icons" xmlns="http://www.w3.org/2000/svg" viewBox="0 0 32 32"><defs><style>.cls-1{fill:none;}</style></defs><path d="M26,10V6.71344L15.71381,17H19v1H14V13h1v3.29974L25.29938,6H22V5h5v5ZM9,2H7V3H9ZM21,2H19V3h2Zm4,0H23V3h2ZM11,3h2V2H11Zm6-1H15V3h2ZM29,21h1V19H29Zm0,4h1V23H29ZM27,2V3h2V5h1V2Zm2,7h1V7H29Zm0,4h1V11H29Zm0,4h1V15H29ZM3,11H2v2H3Zm0,4H2v2H3ZM29,29H27v1h3V27H29ZM3,7H2V9H3ZM23,30h2V29H23Zm-4,0h2V29H19Zm-4,0h2V29H15ZM3,3H5V2H2V5H3ZM2,19H13V30H2ZM3,29h9V20H3Z"/><rect class="cls-1" width="32" height="32"/></svg>
